easy/TankerRumination.svg

<svg viewBox="-2338.781 -513.489 1704.402 1482.877" xmlns="http://www.w3.org/2000/svg"><defs><clipPath id="TankerRumination_svg__b"><path d="M0 0h1166v1094H0z"/></clipPath><clipPath id="TankerRumination_svg__c"><path d="M0 0h545v513H0z"/></clipPath><clipPath id="TankerRumination_svg__a"><path d="M0 0h1166v1094H0z"/></clipPath></defs><path d="M2095.54 561.118h195.51s149.433-5.481 150.255 32.538c.82 38.017-30.69 35.486-55.204 50.276-24.515 14.792-6.874 33.337-28.189 59.933-21.315 26.594-41.289 30.544-80.117 8.66-38.831-21.883-63.522 81.818-125.678 70.209-62.155-11.609-69.902-47.351-72.552-95.156-2.648-47.805-48.861-38.866-43.395-79.281 5.464-40.413 59.37-47.179 59.37-47.179Z" data-name="Path 1226" style="fill:#353f4f" transform="rotate(180 682.633 434.542)"/><path d="M892.539 403.173h136.415s104.265 3.502 104.838-20.789c.574-24.292-21.414-22.674-38.517-32.124-17.105-9.45-4.796-21.3-19.669-38.293-14.872-16.994-28.809-19.516-55.901-5.534-27.093 13.982-44.321-52.276-87.689-44.859-43.368 7.418-48.774 30.254-50.622 60.798-1.848 30.545-34.092 24.834-30.279 50.657 3.813 25.821 41.424 30.144 41.424 30.144Z" data-name="Path 1226" style="fill:#475e82" transform="translate(-3111.775 -475.404)"/><path d="M1960.729 79.391c227.699 104.111 229.432 139.787 239.993 421.387 10.561 281.6-263.672 475.77-565.154 536.738-194.381 39.31-489.404 56.8-603.194-65.307-62.699-67.282-41.07-233.949-41.07-350.334 0-268.862 180.073-461.399 421.796-571.126 52.816-23.975 504.33 8.844 547.629 28.642Z" data-name="Path 678" style="fill:#617084" transform="translate(-3083.606 -550.951)"/><g data-name="Group 1216"><g data-name="Group 1209"><path fill="none" stroke="#323f51" stroke-linecap="round" stroke-linejoin="round" d="M-982.584 262.108c.825 67.193 1.644 112.427 2.469 179.625a342.6 342.6 0 0 0 67.853 1.291" data-name="Path 1765" style="stroke-width:6px" transform="translate(-444.137 477.463)"/><path stroke="#323f51" stroke-miterlimit="10" d="M-703.112 152.034c52.563 29.635 84.427 86.43 107.008 143.07a794.338 794.338 0 0 1 54.754 339.5c-1.316 22.231-3.739 45.023-13.792 64.81-12.76 25.118-36.509 42.677-61.4 55.272-47.245 23.9-100.512 32.948-153.207 35.829-44.8 2.449-90.807.458-132.609-16.1s-79.11-49.628-92.159-93.272c-7.726-25.833-6.649-53.42-5.5-80.395q1.693-39.83 3.39-79.659c3.025-71.1 6.279-143.451 29.77-210.49s70.717-129.194 136.894-152.342c21.068-7.373 46.745-24.773 68.729-21.089 47.747 8 25.075 2.886 58.123 14.864" data-name="Path 1767" style="stroke-width:6px;fill:#7ec8d6" transform="translate(-724.128 -42.492)"/><path fill="none" stroke="#323f51" stroke-linecap="round" stroke-linejoin="round" d="M-837.913 192.036c37.6 11.01 66.69 56.671 66.727 104.73.008 11.381-1.5 22.947-5.641 33.1-7.695 18.846-23.243 30.376-38.112 40.609-52.954 36.421-143.627-188.5-199.462-159.5" data-name="Path 1771" style="stroke-width:6px" transform="translate(-445.453 174.825)"/><path fill="none" stroke="#353f4f" stroke-linecap="round" stroke-miterlimit="10" stroke-width="5" d="M-1459.589 231.48c11.788 2.506 20.613 8.883 29.395 17.064" data-name="Path 1769"/><path fill="#323f51" d="M-1515.492 345.815a48.383 48.383 0 0 0-13.92 9.248c-2.063 1.907-3.002 4.043-.995 6.336 1.924 2.195 3.922 1.158 5.77-.514 14.427-13.06 30.189-13.772 46.885-5.7.831.404 1.685.761 2.502 1.186 2.06 1.064 4.045 1.13 5.28-1.139 1.283-2.356.554-4.38-1.784-5.61-13.994-7.333-28.428-10.129-43.738-3.807Z" data-name="Path 1772"/><path fill="#323f51" d="M-1468.97 264.58c-9.7-.113-16.1 6.181-15.93 15.662.173 9.553 5.91 15.83 14.762 16.164 9.518.362 17.52-7.03 17.427-16.1-.098-9.39-6.528-15.608-16.259-15.726Z" data-name="Path 1773"/><path fill="#fff" d="M-1475.866 269.481c-4.15-.05-6.892 2.648-6.821 6.706.076 4.09 2.533 6.778 6.318 6.918a7.043 7.043 0 0 0 7.461-6.89c-.038-4.022-2.79-6.684-6.958-6.734Z" data-name="Path 1774" opacity=".9"/><path fill="none" stroke="#323f51" stroke-linecap="round" stroke-linejoin="round" d="M-874.248 262.451c3.086 64.453 3.177 107.743.268 172.2a159.254 159.254 0 0 0-68.217.983" data-name="Path 1766" style="stroke-width:6px" transform="translate(-691.849 485.954)"/><path fill="none" stroke="#353f4f" stroke-linecap="round" stroke-miterlimit="10" stroke-width="5" d="M-1546.028 201.351c-11.788 2.507-20.623 8.884-29.394 17.065" data-name="Path 1768"/><path fill="none" stroke="#323f51" stroke-linecap="round" stroke-linejoin="round" d="M-841.237 191.7c-37.162 23.662-61.569 51.624-81.164 91.513-10.033 20.42-17.172 44.864-8.01 65.7 6.365 14.473 19.641 24.655 33.621 31.667 51.748 25.977 114.5 15.666 168.764 35.629" data-name="Path 1770" style="stroke-width:6px" transform="translate(-875.886 184.921)"/><path fill="#323f51" d="M-1543.736 264.062c-8.825-.023-15.777 7.456-15.7 16.88.076 9.8 6.395 16.167 15.969 16.108 9.9-.059 15.456-5.96 15.389-16.348-.063-9.682-6.587-16.62-15.658-16.64Z" data-name="Path 1775"/><path fill="#fff" d="M-1549.871 267.832c-4.178-.05-6.935 2.663-6.86 6.743.077 4.112 2.544 6.816 6.355 6.957a7.087 7.087 0 0 0 7.5-6.929c-.039-4.044-2.804-6.72-6.995-6.77Z" data-name="Path 1776"/></g></g><path d="M1802.055 1476.89c0 6.335-101.338 11.47-226.343 11.47s-226.346-5.135-226.346-11.47c0-6.335 101.337-11.467 226.347-11.467s226.343 5.136 226.343 11.467" data-name="Path 1693" style="fill:rgba(145,151,161,.18)" transform="translate(-3083.606 -550.951)"/><path d="M844.984 413.503h138.495s105.855-3.707 106.437 22.009c.581 25.715-21.74 24.003-39.105 34.007-17.366 10.005-4.869 22.549-19.968 40.539-15.099 17.989-29.249 20.66-56.754 5.858-27.506-14.802-44.997 55.342-89.027 47.49-44.029-7.853-49.517-32.029-51.394-64.364-1.876-32.336-34.612-26.29-30.74-53.627 3.871-27.336 42.056-31.912 42.056-31.912Z" data-name="Path 1226" style="fill:#353f4f" transform="rotate(180 -609.619 250.968)"/><text x="1261.02" y="472.867" style="fill:#fff;font-family:Arial,sans-serif;font-size:80px;font-weight:700;white-space:pre" transform="translate(-3111.775 -475.404)">Jeg er også bare uduelig</text><text x="1345.76" y="118.677" style="fill:#fff;font-family:Arial,sans-serif;font-size:80px;font-weight:700;white-space:pre" transform="translate(-3111.775 -475.404)">Mon hun blev sur? </text><text x="1215.13" y="204.03" style="fill:#fff;font-family:Arial,sans-serif;font-size:50px;white-space:pre" transform="translate(-3111.775 -475.404)">Skal jeg skrive til hende? </text><text style="fill:#fff;font-family:Arial,sans-serif;font-size:40px;white-space:pre" transform="translate(-3612.238 -683.29)"><tspan x="1599.97" y="560.795">Hun vil sikkert ikke have</tspan><tspan x="1599.97" dy="1em">​</tspan><tspan>mere med mig at gøre efter</tspan><tspan x="1599.97" dy="1em">​</tspan><tspan>det her...</tspan></text><path d="M963.547 148.021h138.495s105.855-3.707 106.437 22.009c.581 25.715-21.74 24.003-39.105 34.007-17.366 10.005-4.869 22.549-19.968 40.539-15.099 17.989-29.249 20.66-56.754 5.858-27.506-14.802-44.997 55.342-89.027 47.49-44.029-7.853-49.517-32.029-51.394-64.364-1.876-32.336-34.612-26.29-30.74-53.627 3.871-27.336 42.056-31.912 42.056-31.912Z" data-name="Path 1226" style="fill:#353f4f" transform="rotate(180 -491.056 -14.514)"/><text x="1676.844" y="542.822" style="fill:#fff;font-family:Arial,sans-serif;font-size:40px;white-space:pre" transform="translate(-3111.775 -475.404)">Hvad mon de andre tænkte?</text><text x="1059.774" y="664.796" style="fill:#fff;font-family:Arial,sans-serif;font-size:60px;white-space:pre" transform="translate(-3127.091 -591.346)">Jeg  ødelægger<tspan x="1059.774" dy="1em">​</tspan>altid alt det <tspan x="1059.774" dy="1em">​</tspan>gode der<tspan x="1059.774" dy="1em">​</tspan>sker for mig</text><text style="fill:#fff;font-family:Arial,sans-serif;font-size:40px;font-style:italic;white-space:pre" transform="translate(-3075.442 -634.346)"><tspan x="1778.09" y="770.115">Måske går det over,<tspan x="1778.09" dy="1em">​</tspan>hvis jeg </tspan><tspan>bare ikke<tspan x="1778.09" dy="1em">​</tspan> skriver til hende </tspan><tspan x="1778.09" dy="1em">​</tspan><tspan>i noget tid?</tspan></text><text x="1405.743" y="285.809" style="fill:#fff;font-family:Arial,sans-serif;font-size:60px;white-space:pre" transform="translate(-3111.775 -475.404)">Hun er sikkert vred på mig...</text><path d="M2113.699 220.686h193.212s147.677 5.129 148.488-30.451c.813-35.581-30.33-33.211-54.554-47.053-24.227-13.842-6.793-31.199-27.858-56.089-21.064-24.892-40.804-28.586-79.176-8.106-38.373 20.48-62.774-76.571-124.199-65.707-61.424 10.866-69.081 44.314-71.699 89.053-2.617 44.741-48.286 36.376-42.886 74.2 5.401 37.821 58.672 44.153 58.672 44.153Z" data-name="Path 1226" style="fill:#475e82" transform="translate(-3111.775 -475.404)"/><text x="1069.035" y="843.465" style="fill:#fff;font-family:Arial,sans-serif;font-size:40px;white-space:pre" transform="translate(-3097.071 -494.355)">Jeg er Dum.<tspan x="1069.035" dy="1em">​</tspan>Dum dum dum <tspan x="1069.035" dy="1em">​</tspan>       DUM!</text><text x="1646.651" y="354.658" style="fill:#fff;font-family:Arial,sans-serif;font-size:40px;white-space:pre" transform="translate(-3111.775 -475.404)">... Måske er det også fair nok ?</text></svg>

<?xml version="1.0" encoding="utf-8"?>
<svg viewBox="-2338.781 -513.489 1704.402 1482.877" xmlns="http://www.w3.org/2000/svg">
  <defs>
    <clipPath id="clip-1">
      <rect width="1166" height="1094"/>
    </clipPath>
    <clipPath id="clip-Illustration_-_Min_fysiske_energi_-_Min_fysiske_aktivitet">
      <rect width="545" height="513"/>
    </clipPath>
    <clipPath id="clip-Balance">
      <rect width="1166" height="1094"/>
    </clipPath>
  </defs>
  <path id="path-1" data-name="Path 1226" d="M 2095.54 561.118 L 2291.05 561.118 C 2291.05 561.118 2440.483 555.637 2441.305 593.656 C 2442.125 631.673 2410.615 629.142 2386.101 643.932 C 2361.586 658.724 2379.227 677.269 2357.912 703.865 C 2336.597 730.459 2316.623 734.409 2277.795 712.525 C 2238.964 690.642 2214.273 794.343 2152.117 782.734 C 2089.962 771.125 2082.215 735.383 2079.565 687.578 C 2076.917 639.773 2030.704 648.712 2036.17 608.297 C 2041.634 567.884 2095.54 561.118 2095.54 561.118 Z" style="fill: rgb(53, 63, 79);" transform="matrix(-1, 0, 0, -1, 1365.266843, 869.083799)"/>
  <path id="path-2" data-name="Path 1226" d="M 892.539 403.173 L 1028.954 403.173 C 1028.954 403.173 1133.219 406.675 1133.792 382.384 C 1134.366 358.092 1112.378 359.71 1095.275 350.26 C 1078.17 340.81 1090.479 328.96 1075.606 311.967 C 1060.734 294.973 1046.797 292.451 1019.705 306.433 C 992.612 320.415 975.384 254.157 932.016 261.574 C 888.648 268.992 883.242 291.828 881.394 322.372 C 879.546 352.917 847.302 347.206 851.115 373.029 C 854.928 398.85 892.539 403.173 892.539 403.173 Z" style="fill: rgb(71, 94, 130);" transform="matrix(1, 0, 0, 1, -3111.775149, -475.40375)"/>
  <g transform="matrix(1, 0, 0, 1, -3083.605849, -550.951166)">
    <path id="Path_678" data-name="Path 678" d="M 1960.729 79.391 C 2188.428 183.502 2190.161 219.178 2200.722 500.778 C 2211.283 782.378 1937.05 976.548 1635.568 1037.516 C 1441.187 1076.826 1146.164 1094.316 1032.374 972.209 C 969.675 904.927 991.304 738.26 991.304 621.875 C 991.304 353.013 1171.377 160.476 1413.1 50.749 C 1465.916 26.774 1917.43 59.593 1960.729 79.391 Z" style="fill: rgb(97, 112, 132);"/>
    <g id="Group_1216" data-name="Group 1216" transform="matrix(1, 0, 0, 1, -393.668182, -8098.117676)">
      <g id="Group_1209" data-name="Group 1209" transform="translate(53.113 -929)">
        <path id="Path_1764" data-name="Path 1764" d="M-976.144,187.328" transform="translate(3011.323 9745.573)" fill="none" stroke="#323f51" stroke-width="1"/>
        <path id="Path_1765" data-name="Path 1765" d="M-982.584,262.108c.825,67.193,1.644,112.427,2.469,179.625a342.6,342.6,0,0,0,67.853,1.291" transform="translate(2980.024 10055.532)" fill="none" stroke="#323f51" stroke-linecap="round" stroke-linejoin="round" style="stroke-width: 6px;"/>
        <path id="Path_1767" data-name="Path 1767" d="M-703.112,152.034c52.563,29.635,84.427,86.43,107.008,143.07a794.338,794.338,0,0,1,54.754,339.5c-1.316,22.231-3.739,45.023-13.792,64.81-12.76,25.118-36.509,42.677-61.4,55.272-47.245,23.9-100.512,32.948-153.207,35.829-44.8,2.449-90.807.458-132.609-16.1s-79.11-49.628-92.159-93.272c-7.726-25.833-6.649-53.42-5.5-80.395q1.693-39.83,3.39-79.659c3.025-71.1,6.279-143.451,29.77-210.49s70.717-129.194,136.894-152.342c21.068-7.373,46.745-24.773,68.729-21.089,47.747,8,25.075,2.886,58.123,14.864" transform="translate(2700.033 9535.577)" stroke="#323f51" stroke-miterlimit="10" style="stroke-width: 6px; fill: rgb(126, 200, 214);"/>
        <path id="Path_1771" data-name="Path 1771" d="M-837.913,192.036c37.6,11.01,66.69,56.671,66.727,104.73.008,11.381-1.5,22.947-5.641,33.1-7.695,18.846-23.243,30.376-38.112,40.609-52.954,36.421-143.627-188.5-199.462-159.5" transform="translate(2978.708 9752.894)" fill="none" stroke="#323f51" stroke-linecap="round" stroke-linejoin="round" style="stroke-width: 6px;"/>
        <path id="Path_1769" data-name="Path 1769" d="M466.3,124.343c11.788,2.507,20.613,8.884,29.395,17.065" transform="translate(1498.272 9685.205)" fill="none" stroke="#353f4f" stroke-linecap="round" stroke-miterlimit="10" stroke-width="5"/>
        <path id="Path_1772" data-name="Path 1772" d="M 1908.641 9923.942 C 1903.509 9926.215 1898.811 9929.363 1894.758 9933.247 C 1892.704 9935.162 1891.774 9937.302 1893.79 9939.587 C 1895.723 9941.774 1897.717 9940.729 1899.557 9939.049 C 1913.931 9925.93 1929.69 9925.153 1946.419 9933.157 C 1947.252 9933.557 1948.107 9933.911 1948.926 9934.332 C 1950.99 9935.388 1952.975 9935.446 1954.202 9933.172 C 1955.474 9930.811 1954.737 9928.789 1952.394 9927.569 C 1938.37 9920.294 1923.925 9917.557 1908.641 9923.942 Z" fill="#323f51" transform="matrix(0.999992, 0.004102, -0.004102, 0.999992, 40.751465, -7.807644)"/>
        <path id="Path_1773" data-name="Path 1773" d="M1025.769,500.6c-9.7-.113-16.1,6.181-15.93,15.662.173,9.553,5.91,15.829,14.762,16.164,9.518.362,17.52-7.031,17.427-16.1C1041.93,506.935,1035.5,500.718,1025.769,500.6Z" transform="translate(929.422 9342.049)" fill="#323f51"/>
        <path id="Path_1774" data-name="Path 1774" d="M 1948.295 9847.55 C 1944.145 9847.5 1941.403 9850.198 1941.474 9854.256 C 1941.55 9858.345 1944.007 9861.034 1947.792 9861.174 C 1951.784 9861.412 1955.174 9858.282 1955.253 9854.283 C 1955.215 9850.262 1952.463 9847.6 1948.295 9847.55 Z" fill="#fff" opacity="0.9"/>
        <path id="Path_1766" data-name="Path 1766" d="M-874.248,262.451c3.086,64.453,3.177,107.743.268,172.2a159.254,159.254,0,0,0-68.217.983" transform="translate(2732.312 10064.023)" fill="none" stroke="#323f51" stroke-linecap="round" stroke-linejoin="round" style="stroke-width: 6px;"/>
        <path id="Path_1768" data-name="Path 1768" d="M507.083,124.343c-11.788,2.507-20.623,8.884-29.394,17.065" transform="translate(1371.05 9655.077)" fill="none" stroke="#353f4f" stroke-linecap="round" stroke-miterlimit="10" stroke-width="5"/>
        <path id="Path_1770" data-name="Path 1770" d="M-841.237,191.7c-37.162,23.662-61.569,51.624-81.164,91.513-10.033,20.42-17.172,44.864-8.01,65.7,6.365,14.473,19.641,24.655,33.621,31.667,51.748,25.977,114.5,15.666,168.764,35.629" transform="translate(2548.275 9762.99)" fill="none" stroke="#323f51" stroke-linecap="round" stroke-linejoin="round" style="stroke-width: 6px;"/>
        <path id="Path_1775" data-name="Path 1775" d="M1052.8,500.4c-8.825-.023-15.777,7.456-15.7,16.88.076,9.8,6.395,16.167,15.969,16.108,9.9-.059,15.456-5.961,15.389-16.348C1068.395,507.358,1061.871,500.42,1052.8,500.4Z" transform="translate(827.625 9341.731)" fill="#323f51"/>
        <path id="Path_1776" data-name="Path 1776" d="M 1874.29 9845.901 C 1870.112 9845.851 1867.355 9848.564 1867.43 9852.644 C 1867.507 9856.756 1869.974 9859.46 1873.785 9859.601 C 1877.798 9859.836 1881.202 9856.691 1881.285 9852.672 C 1881.246 9848.628 1878.481 9845.951 1874.29 9845.901 Z" fill="#fff"/>
      </g>
    </g>
    <path id="path-8" data-name="Path 1693" d="M 1802.055 1476.89 C 1802.055 1483.225 1700.717 1488.36 1575.712 1488.36 C 1450.707 1488.36 1349.366 1483.225 1349.366 1476.89 C 1349.366 1470.555 1450.703 1465.423 1575.713 1465.423 C 1700.723 1465.423 1802.056 1470.559 1802.056 1476.89" style="fill: rgba(145, 151, 161, 0.18);"/>
  </g>
  <path id="path-3" data-name="Path 1226" d="M 844.984 413.503 L 983.479 413.503 C 983.479 413.503 1089.334 409.796 1089.916 435.512 C 1090.497 461.227 1068.176 459.515 1050.811 469.519 C 1033.445 479.524 1045.942 492.068 1030.843 510.058 C 1015.744 528.047 1001.594 530.718 974.089 515.916 C 946.583 501.114 929.092 571.258 885.062 563.406 C 841.033 555.553 835.545 531.377 833.668 499.042 C 831.792 466.706 799.056 472.752 802.928 445.415 C 806.799 418.079 844.984 413.503 844.984 413.503 Z" style="fill: rgb(53, 63, 79);" transform="matrix(-1, 0, 0, -1, -1219.238039, 501.935118)"/>
  <g id="Group_1218" data-name="Group 1218" transform="matrix(1, 0, 0, 1, -6278.541995, -343.712954)">
    <g id="Group_775" data-name="Group 775" transform="translate(1605.99 -3345)"/>
    <g transform="matrix(1, 0, 0, 1, 5918.255371, 1741.136475)"/>
    <g id="Group_831" data-name="Group 831" transform="matrix(1, 0, 0, 1, 15446.624034, -2293.06315)">
      <g id="Group_840" data-name="Group 840" transform="matrix(1.570383, 0, 0, 1.762897, -11265.592773, 719.196899)" style=""/>
      <g id="Group_656" data-name="Group 656" transform="matrix(0.463966, -0.024315, 0.0259, 0.494203, -9905.03125, 3667.9104)" style=""/>
    </g>
    <g id="Balance" clip-path="url(#clip-Balance)" transform="matrix(1, 0, 0, 1, 8824.828624, 994.804221)"/>
    <g id="Group_1192" data-name="Group 1192" transform="matrix(-1, 0, 0, 1, 12120.329112, 55.630454)"/>
    <polyline style="fill: rgb(216, 216, 216); stroke: rgb(0, 0, 0);" points="510.455 -75.258" transform="matrix(1, 0, 0, 1, 9319.091808, 1073.335562)"/>
    <path style="fill: rgb(216, 216, 216); stroke: rgb(0, 0, 0);" d="M -167.225 -0.173" transform="matrix(1, 0, 0, 1, 7440.343273, 1091.577658)"/>
  </g>
  <g id="g-1" clip-path="url(#clip-1)" transform="matrix(1, 0, 0, 1, -927.074709, -404.019869)"/>
  <g id="Illustration_-_Min_fysiske_energi_-_Min_fysiske_aktivitet" data-name="Illustration - Min fysiske energi - Min fysiske aktivitet" clip-path="url(#clip-Illustration_-_Min_fysiske_energi_-_Min_fysiske_aktivitet)" transform="matrix(1, 0, 0, 1, -1221.675906, -806.212618)"/>
  <text style="fill: rgb(255, 255, 255); font-family: Arial, sans-serif; font-size: 80px; font-weight: 700; white-space: pre;" x="1261.02" y="472.867" transform="matrix(1, 0, 0, 1, -3111.775149, -475.40375)">Jeg er også bare uduelig</text>
  <text style="fill: rgb(255, 255, 255); font-family: Arial, sans-serif; font-size: 80px; font-weight: 700; white-space: pre;" x="1345.76" y="118.677" transform="matrix(1, 0, 0, 1, -3111.775149, -475.40375)">Mon hun blev sur? </text>
  <text style="fill: rgb(255, 255, 255); font-family: Arial, sans-serif; font-size: 50px; white-space: pre;" x="1215.13" y="204.03" transform="matrix(1, 0, 0, 1, -3111.775149, -475.40375)">Skal jeg skrive til hende? </text>
  <text style="fill: rgb(255, 255, 255); font-family: Arial, sans-serif; font-size: 40px; white-space: pre;" transform="matrix(1, 0, 0, 1, -3612.238467, -683.290209)"><tspan x="1599.97" y="560.795">Hun vil sikkert ikke have</tspan><tspan x="1599.97" dy="1em">​</tspan><tspan>mere med mig at gøre efter</tspan><tspan x="1599.97" dy="1em">​</tspan><tspan>det her...</tspan></text>
  <path id="path-7" data-name="Path 1226" d="M 963.547 148.021 L 1102.042 148.021 C 1102.042 148.021 1207.897 144.314 1208.479 170.03 C 1209.06 195.745 1186.739 194.033 1169.374 204.037 C 1152.008 214.042 1164.505 226.586 1149.406 244.576 C 1134.307 262.565 1120.157 265.236 1092.652 250.434 C 1065.146 235.632 1047.655 305.776 1003.625 297.924 C 959.596 290.071 954.108 265.895 952.231 233.56 C 950.355 201.224 917.619 207.27 921.491 179.933 C 925.362 152.597 963.547 148.021 963.547 148.021 Z" style="fill: rgb(53, 63, 79);" transform="matrix(-1, 0, 0, -1, -982.112063, -29.028902)"/>
  <text style="fill: rgb(255, 255, 255); font-family: Arial, sans-serif; font-size: 40px; white-space: pre;" x="1676.844" y="542.822" transform="matrix(1, 0, 0, 1, -3111.775149, -475.40375)">Hvad mon de andre tænkte?</text>
  <text style="fill: rgb(255, 255, 255); font-family: Arial, sans-serif; font-size: 60px; white-space: pre;" x="1059.774" y="664.796" transform="matrix(1, 0, 0, 1, -3127.091224, -591.345873)">Jeg  ødelægger<tspan x="1059.7740478515625" dy="1em">​</tspan>altid alt det <tspan x="1059.7740478515625" dy="1em">​</tspan>gode der<tspan x="1059.7740478515625" dy="1em">​</tspan>sker for mig</text>
  <text style="fill: rgb(255, 255, 255); font-family: Arial, sans-serif; font-size: 40px; font-style: italic; white-space: pre;" transform="matrix(1, 0, 0, 1, -3075.441924, -634.345629)"><tspan x="1778.09" y="770.115">Måske går det over,<tspan x="1778.0899658203125" dy="1em">​</tspan>hvis jeg </tspan><tspan>bare ikke<tspan x="1778.0899658203125" dy="1em">​</tspan> skriver til hende </tspan><tspan x="1778.0899658203125" dy="1em">​</tspan><tspan>i noget tid?</tspan></text>
  <text style="fill: rgb(255, 255, 255); font-family: Arial, sans-serif; font-size: 60px; white-space: pre;" x="1405.743" y="285.809" transform="matrix(1, 0, 0, 1, -3111.775149, -475.40375)">Hun er sikkert vred på mig...</text>
  <path id="Path_1226" data-name="Path 1226" d="M 2113.699 220.686 L 2306.911 220.686 C 2306.911 220.686 2454.588 225.815 2455.399 190.235 C 2456.212 154.654 2425.069 157.024 2400.845 143.182 C 2376.618 129.34 2394.052 111.983 2372.987 87.093 C 2351.923 62.201 2332.183 58.507 2293.811 78.987 C 2255.438 99.467 2231.037 2.416 2169.612 13.28 C 2108.188 24.146 2100.531 57.594 2097.913 102.333 C 2095.296 147.074 2049.627 138.709 2055.027 176.533 C 2060.428 214.354 2113.699 220.686 2113.699 220.686 Z" style="fill: rgb(71, 94, 130);" transform="matrix(1, 0, 0, 1, -3111.775149, -475.40375)"/>
  <text style="fill: rgb(255, 255, 255); font-family: Arial, sans-serif; font-size: 40px; white-space: pre;" x="1069.035" y="843.465" transform="matrix(1, 0, 0, 1, -3097.07104, -494.354887)">Jeg er Dum.<tspan x="1069.0350341796875" dy="1em">​</tspan>Dum dum dum <tspan x="1069.0350341796875" dy="1em">​</tspan>       DUM!</text>
  <text style="fill: rgb(255, 255, 255); font-family: Arial, sans-serif; font-size: 40px; white-space: pre;" x="1646.651" y="354.658" transform="matrix(1, 0, 0, 1, -3111.775149, -475.40375)">... Måske er det også fair nok ?</text>
</svg>
